X:1
P: Pigeon on the Gate
C: from B. McOwen/SRSNH 8.2
C: Arr. T. Traub 4-29-04
R: reel
M: 4/4
K: A
L: 1/8
af |: "A"eA A/A/A ABcd|"A"eA A/A/A "D"a2 af|"A"eA A/A/A ABcd|"A"ef=ge "G"d2 cd :|
"A"eaaf =gfed |"A"eaaf "G"=g2 fg|"A"eaaf =gfed|"A"ef=ge "D"d2 cd|
"A"eaaf =gfed |"A"eaaf "G"=g2 fg|"D"af=ge fdec|"G"dB B/B/B =g2 |]
